X: 1534
T: the Mullingar Races
T: coi.mleanga .muilleann na .gara.d.
R: reel
B: O'Neill's Music of Ireland, 1534
Z: transcribed by John B. Walsh, walsh@math.ubc.ca 8/23/96
O: McFadden
M: C|
L: 1/8
K: D
A,2 | D2(FD) EA,A,E | DEFA Bcde | ((3fga) ec dcdA | ((3Bcd) AF EGFE || DEFD EA,A,E | DEFA Bcde | ((3fga) ec dBAG |
| FGEF D2 |] ((3ABc) |: d2 (fd) adfb | afdf edBc |1 d2(fd) adfd | Beed egfe :|2 dgfe dBAG | FGEF D2 |]
